lib/functional/time/calendar.svg

<svg xmlns="http://www.w3.org/2000/svg" fill="none" stroke="currentColor" aria-hidden="true" viewBox="0 0 32 32"><g id="Icon-Calendar"><g clip-path="url(#clip0_11_1462)"><g id="size=md (32px)"><g id="Calendar"><path id="Vector" stroke-linecap="round" stroke-linejoin="round" stroke-width="2" d="M26 5H6C5.44772 5 5 5.44772 5 6V26C5 26.5523 5.44772 27 6 27H26C26.5523 27 27 26.5523 27 26V6C27 5.44772 26.5523 5 26 5Z"/><path id="Vector_2" stroke-linecap="round" stroke-linejoin="round" stroke-width="2" d="M22 3V7"/><path id="Vector_3" stroke-linecap="round" stroke-linejoin="round" stroke-width="2" d="M10 3V7"/><path id="Vector_4" stroke-linecap="round" stroke-linejoin="round" stroke-width="2" d="M5 11H27"/><path id="Vector_5" stroke-linecap="round" stroke-linejoin="round" stroke-width="2" d="M11.5 16H15L13 18.5C13.3291 18.4994 13.6533 18.5801 13.9438 18.7349C14.2343 18.8897 14.4821 19.1137 14.6653 19.3872C14.8484 19.6607 14.9612 19.9752 14.9937 20.3027C15.0261 20.6303 14.9773 20.9608 14.8514 21.2649C14.7255 21.569 14.5265 21.8374 14.272 22.0462C14.0176 22.2549 13.7155 22.3977 13.3927 22.4618C13.0698 22.5258 12.7361 22.5092 12.4212 22.4134C12.1063 22.3176 11.82 22.1455 11.5875 21.9125"/><path id="Vector_6" stroke-linecap="round" stroke-linejoin="round" stroke-width="2" d="M18 17.5L20 16V22.5"/></g></g></g></g><defs><clipPath id="clip0_11_1462"><rect width="32" height="32" fill="white" rx="5"/></clipPath></defs></svg>

<svg xmlns="http://www.w3.org/2000/svg" fill="none" stroke="currentColor" aria-hidden="true" viewBox="0 0 32 32"><g stroke="#101828" stroke-linecap="round" stroke-linejoin="round" stroke-width="2" clip-path="url(#a)"><path d="M26 5H6a1 1 0 0 0-1 1v20a1 1 0 0 0 1 1h20a1 1 0 0 0 1-1V6a1 1 0 0 0-1-1Zm-4-2v4M10 3v4m-5 4h22"/><path d="M11.5 16H15l-2 2.5a2 2 0 1 1-1.412 3.413M18 17.5l2-1.5v6.5"/></g><defs><clipPath id="a"><rect width="32" height="32" fill="#fff" rx="5"/></clipPath></defs></svg>
